X:223
T:Kvintf\"orflyttningen
R:sl\"angpolska
H:efter Johannes Johansson "Spel-Jocke", Torpa, Ydre
O:\"Osterg\"otland
Z:id:hn-sp-223
M:3/4
L:1/16
K:D
A2d2 F3A GFED | A2dA F2AA GFED | d2fd A2df agfg | efed cdef gfec |
d2fd A2df agfg | efed cdef gfga | b3g a3f gfga | bgec c2d2 d4 :|
[K:A] |: e2a2 c3e dcBA | e2ae c2ee dcBA | eac'a eac'a eac'a |
ebd'b ebd'b ebd'b | eac'a eac'a eac'a | ebd'b ebd'b ebd'b |
e2fg agae dcBA | cBAG A4 A4 :|
<end>
<start>
